svgs/sharp-thin/family-dress.svg

<svg xmlns="http://www.w3.org/2000/svg" viewBox="0 0 512 512"><!--! Font Awesome Pro 6.6.0 by @fontawesome - https://fontawesome.com License - https://fontawesome.com/license (Commercial License) Copyright 2024 Fonticons, Inc. --><path d="M80 64a48 48 0 1 1 96 0A48 48 0 1 1 80 64zm112 0A64 64 0 1 0 64 64a64 64 0 1 0 128 0zM21.2 368L76.1 176l92.3 0c.5-5.5 1.5-10.8 3-16L64 160 4.6 368 0 384l16.6 0L56 384l0 120 0 8 8 0 48 0 8 0 0-8 0-120 16 0 0 120 0 8 8 0 32 0 0-16-24 0 0-112 8 0 0-16-16 0-32 0-48 0-42.8 0zM376 512l0-8 0-120 16 0 0 120 0 8 8 0 48 0 8 0 0-8 0-120 39.4 0 16.6 0-4.6-16L448 160l-107.3 0c1.5 5.2 2.5 10.5 3 16l92.3 0 54.9 192L448 368l-48 0-32 0-16 0 0 16 8 0 0 112-24 0 0 16 32 0 8 0zM72 384l32 0 0 112-32 0 0-112zM336 64a48 48 0 1 1 96 0 48 48 0 1 1 -96 0zm112 0A64 64 0 1 0 320 64a64 64 0 1 0 128 0zm-8 320l0 112-32 0 0-112 32 0zM256 144a40 40 0 1 1 0 80 40 40 0 1 1 0-80zm0 96a56 56 0 1 0 0-112 56 56 0 1 0 0 112zm64 32l0 128-16 0-16 0-64 0-16 0-16 0 0-128 128 0zM208 416l0 88 0 8 16 0 0-8 0-88 64 0 0 88 0 8 16 0 0-8 0-88 16 0 16 0 0-16 0-128 0-16-16 0-128 0-16 0 0 16 0 128 0 16 16 0 16 0z"/></svg>

<svg xmlns="http://www.w3.org/2000/svg" viewBox="0 0 512 512"><!--! Font Awesome Pro 6.5.2 by @fontawesome - https://fontawesome.com License - https://fontawesome.com/license (Commercial License) Copyright 2024 Fonticons, Inc. --><path d="M80 64a48 48 0 1 1 96 0A48 48 0 1 1 80 64zm112 0A64 64 0 1 0 64 64a64 64 0 1 0 128 0zM21.2 368L76.1 176h92.3c.5-5.5 1.5-10.8 3-16H64L4.6 368 0 384H16.6 56V504v8h8 48 8v-8V384h16V504v8h8 32V496H152V384h8V368H144 112 64 21.2zM376 512v-8V384h16V504v8h8 48 8v-8V384h39.4H512l-4.6-16L448 160H340.7c1.5 5.2 2.5 10.5 3 16h92.3l54.9 192H448 400 368 352v16h8V496H336v16h32 8zM72 384h32V496H72V384zM336 64a48 48 0 1 1 96 0 48 48 0 1 1 -96 0zm112 0A64 64 0 1 0 320 64a64 64 0 1 0 128 0zm-8 320V496H408V384h32zM256 144a40 40 0 1 1 0 80 40 40 0 1 1 0-80zm0 96a56 56 0 1 0 0-112 56 56 0 1 0 0 112zm64 32V400H304 288 224 208 192V272H320zM208 416v88 8h16v-8V416h64v88 8h16v-8V416h16 16V400 272 256H320 192 176v16V400v16h16 16z"/></svg>
